X: 1767
T: April Storm
R: jig
M: 6/8
K: Ddorian
|:d2 d2 A/B/c|d2 d2 de|fed cAc|fed cAc|
d2 d2 A/B/c|d2d cde|fed cBA|GFE D3:|
|:D2D EDC|DE/F/G A2B|c2c GA/B/c|AcA G2E|
D2D EDC|DE/F/G A2e|fed cBA|GFE D3:|

